!!!!SEGMENT: pl-sa--179-a-v-9--005_anonim--msza-agnus-dei.krn
!!!cenid: 17xx:1643
!!!COM: Anonim
!!!COM-rismID: pe30004985
!!!CDT:
!!!CNT:
!!!OPR: Msza
!!!OTL: Agnus Dei
!!!OMV: 005
!!!PDT:
!!!AGN: Sacred; Mass
!!!SMS-siglum: PL-SA
!!!SMS-shelfmark: 179/A V 9
!!!SMS-shelfwork: 001-005 M
!!!SMS-variant:
!!!SMS-altvar:
!!!NIFC-rismSourceID: 1001035886
!!!NIFC-islandoraID:
!!!URL-pdf-islandora:
!!!URL-scan: https://bc.bdsandomierz.pl/dlibra/publication/1514/edition/1482/content @EN{Scan on Cyfrowa Biblioteka Diecezjalna w Sandomierzu} @PL{Skany w portalu Cyfrowa Biblioteka Diecezjalna w Sandomierzu}
!!!ONB-nifc: UWAGA: części Mszy: 1. Kyrie, 2. Et in terra, 3. Patrem, 4. Sanctus, 5. Agnus Dei
!!!AIN: 1 alto 1 bass 1 soprn 1 tenor 2 violn
!!!key: D
**kern	**kern	**dynam	**kern	**text	**kern	**kern	**text	**kern	**text
*group2	*group2	*	*group1	*	*group1	*group1	*	*group1	*
*part6	*part5	*part5	*part4	*part4	*part3	*part2	*part2	*part1	*part1
*staff6	*staff5	*	*staff4	*staff4	*staff3	*staff2	*staff2	*staff1	*staff1
*I"Violino 2do.	*I"Violino 1mo.	*	*I"Baſso	*	*I"[Tenor]	*I"Alto.	*	*I"Canto.	*
*I'vl 2	*I'vl 1	*	*I'B	*	*I'T	*I'A	*	*I'S	*
*Ivioln	*Ivioln	*	*Ibass	*	*Itenor	*Ialto	*	*Isoprn	*
*ICstr	*ICstr	*	*ICvox	*	*ICvox	*ICvox	*	*ICvox	*
*clefG2	*clefG2	*	*clefF4	*	*clefC4	*clefC3	*	*clefC1	*
*k[c#f#]	*k[c#f#]	*	*k[c#f#]	*	*k[f#c#]	*k[c#f#]	*	*k[f#c#]	*
*D:	*D:	*	*D:	*	*D:	*D:	*	*D:	*
*M4/4	*M4/4	*	*M4/4	*	*M4/4	*M4/4	*	*M4/4	*
*met(C.)	*met(C.)	*	*met(C.)	*	*met(C.)	*met(C.)	*	*met(C.)	*
=1	=1	=1	=1	=1	=1	=1	=1	=1	=1
!LO:TX:b:i:t=Agnus	!LO:TX:b:i:t=Agnus	!	!	!	!	!	!	!LO:TX:t=P:problem=znaki f# cc#	!
!LO:TX:a:t=adag&colon;	!LO:TX:a:i:t=Adagio	!	!LO:TX:a:t=adagio	!	!LO:TX:t=P::problem=brak partii, wg RISM "Notes on material&colon; Other parts presumably missing."	!LO:TX:a:t=adagio	!	!LO:TX:a:t=adagio	!
8f#/L	8dd\L	.	4D\	A-	1ryy	4d\	A-	4a\	A-
8f#/	8dd\	.	.	.	.	.	.	.	.
8f#/	8dd\	.	4D\	-gn(us)	.	4d\	-gn(us)	4a\	-gnus
8f#/J	8dd\J	.	.	.	.	.	.	.	.
*tremolo	*	*	*	*	*	*	*	*	*
8g/L	8b\L	.	8G\	De-	.	8d\	De-	8b\	De-
8g/	8b\	.	16G\	-i	.	16d\	-i	16b\	-i
.	.	.	16G\	qvi	.	16d\	qvi	16b\	qvi
8g/	8b\	.	8G\	tol-	.	8d\	tol-	8b\	tol-
8g/J	8b\J	.	16G\	-lis	.	16d\	-lis	16b\	-lis
.	.	.	16G\	pec-	.	16d\	pec-	16b\	pec-
=2	=2	=2	=2	=2	=2	=2	=2	=2	=2
8g/L	8cc#\L	.	8E\	-ca-	1ryy	8c#\	-ca-	8cc#\	-ca-
8g/	8cc#\	.	8E\	-ta	.	8e\	-ta	8cc#\	-ta
8g/	8cc#\	.	8E\	mun-	.	8g\	m(un)-	8cc#\	m(un)-
8g/J	8cc#\J	.	8E\	-di	.	8e\	-di	8cc#\	-di
8f#/L	8dd\L	.	8D\	mi-	.	8f#\	mi-	8dd\	mi-
8f#/	8dd\	.	8D\	-se-	.	8f#\	-se-	8dd\	-se-
8f#/	8dd\	.	8D\	-re-	.	8f#\	-re-	8dd\	-re-
8f#/J	8dd\J	.	8D\	-re	.	8f#\	-re	8dd\	-re
*Xtremolo	*	*	*	*	*	*	*	*	*
=3	=3	=3	=3	=3	=3	=3	=3	=3	=3
*	*	*	*2\right	*	*	*2\right	*	*2\right	*
!LO:TX:a:t=P:problem=mixed beam	!	!	!	!	!	!	!	!	!
8fn/L	8dd\L	.	2G#X\	no-	1ryy	2fn\	no-	2dd\	no-
8dd\	8ffn\	.	.	.	.	.	.	.	.
8dd\	8ff\	.	.	.	.	.	.	.	.
8b\J	8dd\J	.	.	.	.	.	.	.	.
8a\L	8cc#\L	.	2A\	-bis	.	2a\	-bis	2cc#\	-bis
8aa\	8aa\	.	.	.	.	.	.	.	.
8ee\	8ee\	.	.	.	.	.	.	.	.
8cc#\J	8cc#\J	.	.	.	.	.	.	.	.
!	!	!	!LO:LB:g=original	!	!	!LO:LB:g=original	!	!	!
=4	=4	=4	=4	=4	=4	=4	=4	=4	=4
8a/L	8a/L	.	2r	.	1ryy	2r	.	2r	.
8a/	8a/	.	.	.	.	.	.	.	.
8e/	8e/	.	.	.	.	.	.	.	.
8c#/J	8c#/J	.	.	.	.	.	.	.	.
!LO:TX:a:t=P:problem=mixed beam	!LO:TX:a:t=P:problem=mixed beam	!	!	!	!	!	!	!	!
8A/L	8A/L	.	4A\	mi-	.	4e\	mi-	4cc#\	mi-
8ee\	8gg\	.	.	.	.	.	.	.	.
8ee\	8gg\	.	4A\	-se-	.	4e\	-se-	4cc#\	-se-
8ee\J	8gg\J	.	.	.	.	.	.	.	.
!	!	!	!	!	!	!	!	!LO:LB:g=original	!
=5	=5	=5	=5	=5	=5	=5	=5	=5	=5
8dd\L	8ff#\L	.	4A\	-re-	1ryy	4f#\	-re-	4dd\	-re-
8dd\	8ff#\	.	.	.	.	.	.	.	.
8dd\	8ff#\	.	4A\	-re	.	4f#\	-re	4dd\	-re
8dd\J	8ff#\J	.	.	.	.	.	.	.	.
8dd\L	8ee\L	.	(4A\	no-	.	2e\	no-	4dd\	no-
8dd\	8ee\	.	.	.	.	.	.	.	.
8cc#\	8ee\	.	4AA/)	.	.	.	.	4cc#\	.
8cc#\J	8ee\J	.	.	.	.	.	.	.	.
=6	=6	=6	=6	=6	=6	=6	=6	=6	=6
!LO:TX:a:t=P:problem=mixed beam	!	!	!	!	!	!	!	!	!
8dd\L	8ff#\L	.	2D\	-bis.	1ryy	2f#\	-bis	4dd\	-bis
8f#/	8dd\	.	.	.	.	.	.	.	.
8f#/	8a\	.	.	.	.	.	.	4r	.
8f#/J	8f#\J	.	.	.	.	.	.	.	.
4f#/	4d/	.	2r	.	.	2r	.	2r	.
4r	4r	.	.	.	.	.	.	.	.
=7||	=7||	=7||	=7||	=7||	=7||	=7||	=7||	=7||	=7||
*k[g#c#f#]	*k[g#c#f#]	*	*	*	*	*	*	*k[f#g#c#]	*
*M2/4	*M2/4	*	*	*	*	*	*	*M2/4	*
!LO:TX:b:i:t=Agn(us)	!LO:TX:b:i:t=Agnus.	!	!	!	!	!	!	!LO:TX:t=P:problem=znaki f# g# cc#	!
!LO:TX:a:i:t=Tardiſsimo.	!LO:TX:a:i:t=Tardiſsimo	!	!LO:TX:a:t=Tacet	!	!	!LO:TX:a:t=Tacet	!	!LO:TX:a:t=Tarde	!
!LO:TX:t=P:problem=znaki g# cc# ff#	!LO:TX:t=P:problem=znaki g# cc# ff#	!	!	!	!	!	!	!	!
16a\LL	16cc#\LL	.	8ryy	.	8ryy	8ryy	.	8r	.
16b\JJ	16dd\JJ	.	.	.	.	.	.	.	.
=8	=8	=8	=8	=8	=8	=8	=8	=8	=8
8.cc#\L	16ee\LL	.	2ryy	.	2ryy	2ryy	.	0r	.
.	16cc#\	.	.	.	.	.	.	.	.
.	16b\	.	.	.	.	.	.	.	.
16a\Jk	16a\JJ	.	.	.	.	.	.	.	.
4b\	4b\	.	.	.	.	.	.	.	.
!LO:LB:g=original	!LO:LB:g=original	!	!	!	!	!	!	!	!
=9	=9	=9	=9	=9	=9	=9	=9	=9	=9
8a/L	8a/L	.	2ryy	.	2ryy	2ryy	.	.	.
16e/L	16e/L	.	.	.	.	.	.	.	.
16a/JJ	16a/JJ	.	.	.	.	.	.	.	.
8a/L	8a/L	.	.	.	.	.	.	.	.
16e/L	16e/L	.	.	.	.	.	.	.	.
16a/JJ	16a/JJ	.	.	.	.	.	.	.	.
=10	=10	=10	=10	=10	=10	=10	=10	=10	=10
8g#/L	8b\L	.	2ryy	.	2ryy	2ryy	.	.	.
8a/J	8cc#\J	.	.	.	.	.	.	.	.
16r	16r	.	.	.	.	.	.	.	.
16a/LL	16a/LL	.	.	.	.	.	.	.	.
16g#/	16g#/	.	.	.	.	.	.	.	.
16f#/JJ	16f#/JJ	.	.	.	.	.	.	.	.
=11	=11	=11	=11	=11	=11	=11	=11	=11	=11
!LO:TX:a:t=P:problem=mixed beam	!LO:TX:a:t=P:problem=mixed beam	!	!	!	!	!	!	!	!
8e/L	8e/L	.	2ryy	.	2ryy	2ryy	.	.	.
8dd\J	8ff#\J	.	.	.	.	.	.	.	.
16cc#\LL	16ee\LL	.	.	.	.	.	.	.	.
16a\	16a\	.	.	.	.	.	.	.	.
16g#\	16g#\	.	.	.	.	.	.	.	.
16f#\JJ	16f#\JJ	.	.	.	.	.	.	.	.
=12	=12	=12	=12	=12	=12	=12	=12	=12	=12
8e/L	8e/L	.	2ryy	.	2ryy	2ryy	.	1r	.
8d/	8f#/J	.	.	.	.	.	.	.	.
8c#/	16e/LL	.	.	.	.	.	.	.	.
.	16a/	.	.	.	.	.	.	.	.
8c#/J	16g#/	.	.	.	.	.	.	.	.
.	16f#/JJ	.	.	.	.	.	.	.	.
=13	=13	=13	=13	=13	=13	=13	=13	=13	=13
8c#/L	16e/LL	.	2ryy	.	2ryy	2ryy	.	.	.
.	16a/	.	.	.	.	.	.	.	.
8c#/	16g#/	.	.	.	.	.	.	.	.
.	16f#/JJ	.	.	.	.	.	.	.	.
!	!LO:TX:a:t=P:problem=mixed beam	!	!	!	!	!	!	!	!
8c#/	16e/LL	.	.	.	.	.	.	.	.
.	16ee\	.	.	.	.	.	.	.	.
8c#/J	16dd\	.	.	.	.	.	.	.	.
.	16cc#\JJ	.	.	.	.	.	.	.	.
!	!	!	!	!	!	!	!	!LO:CL:ed	!
*	*	*	*	*	*	*	*	*clefC4	*
=14	=14	=14	=14	=14	=14	=14	=14	=14	=14
!LO:TX:a:t=P:problem=mixed beam	!LO:TX:a:t=P:problem=mixed beam	!	!	!	!	!	!	!	!
8B/L	16e/LL	.	2ryy	.	2ryy	2ryy	.	4r	.
.	16dd\J	.	.	.	.	.	.	.	.
16b\L	8cc#\J	.	.	.	.	.	.	.	.
16a\JJ	.	.	.	.	.	.	.	.	.
!	!	!LO:DY:a:t=Po	!	!	!	!	!	!	!
4r	8r	p	.	.	.	.	.	8r	.
.	16a/LL	.	.	.	.	.	.	16c#\	A-
.	16b/JJ	.	.	.	.	.	.	16d\	-gn(us)
=15	=15	=15	=15	=15	=15	=15	=15	=15	=15
8a/L	8cc#\L	.	2ryy	.	2ryy	2ryy	.	16e\LL	De-
.	.	.	.	.	.	.	.	16c#\JJ	.
8c#/	8a\	.	.	.	.	.	.	16B\	-i
.	.	.	.	.	.	.	.	16A\	qvi
8d/	8.b\	.	.	.	.	.	.	4B\	tol-
8e/J	.	.	.	.	.	.	.	.	.
.	16g#\Jk	.	.	.	.	.	.	.	.
=16	=16	=16	=16	=16	=16	=16	=16	=16	=16
8c#/	8a\	.	2ryy	.	2ryy	2ryy	.	8A/	-lis
8r	8r	.	.	.	.	.	.	16E/LL	pec-
.	.	.	.	.	.	.	.	16A/JJ	.
8a/	8cc#\	.	.	.	.	.	.	8A/	-ca-
8ryy	8r	.	.	.	.	.	.	16E/LL	-ta
.	.	.	.	.	.	.	.	16A/JJ	.
!	!	!	!	!	!	!	!	!LO:LB:g=original	!
=17	=17	=17	=17	=17	=17	=17	=17	=17	=17
8g#/L	8b\L	.	2ryy	.	2ryy	2ryy	.	8B\	mun-
8a/	8cc#\	.	.	.	.	.	.	8c#\	-di
8d/	8g#\	.	.	.	.	.	.	4r	.
8c#/J	8a\J	.	.	.	.	.	.	.	.
=18	=18	=18	=18	=18	=18	=18	=18	=18	=18
16g#/LL	8b/L	.	2ryy	.	2ryy	2ryy	.	8.E/	mi-
16g#/	.	.	.	.	.	.	.	.	.
16g#/	16e/L	.	.	.	.	.	.	.	.
16g#/JJ	16b/JJ	.	.	.	.	.	.	16B\	-se-
16g#/LL	8b/L	.	.	.	.	.	.	8B\	-re-
16g#/	.	.	.	.	.	.	.	.	.
16g#/	16e/L	.	.	.	.	.	.	8e\	-re
16g#/JJ	16b/JJ	.	.	.	.	.	.	.	.
!LO:LB:g=original	!LO:LB:g=original	!	!	!	!	!	!	!	!
=19	=19	=19	=19	=19	=19	=19	=19	=19	=19
*	*	*	*	*	*	*	*	*	*ij
16a/LL	8cc#/L	.	2ryy	.	2ryy	2ryy	.	8.E/	mi-
16a/	.	.	.	.	.	.	.	.	.
16a/	16e/L	.	.	.	.	.	.	.	.
16a/JJ	16cc#/JJ	.	.	.	.	.	.	16A/	-se-
16a/LL	8cc#/L	.	.	.	.	.	.	8c#\	-re-
16a/	.	.	.	.	.	.	.	.	.
16a/	16e/L	.	.	.	.	.	.	8e\	-re
*	*	*	*	*	*	*	*	*	*Xij
16a/JJ	16cc#/JJ	.	.	.	.	.	.	.	.
=20	=20	=20	=20	=20	=20	=20	=20	=20	=20
!	!LO:TX:a:t=P:problem=mixed beam	!	!	!	!	!	!	!	!
16b\LL	16dd\LL	.	2ryy	.	2ryy	2ryy	.	8.d\	mi-
16b\	16e/	.	.	.	.	.	.	.	.
16b\	16e/	.	.	.	.	.	.	.	.
16b\JJ	16dd/JJ	.	.	.	.	.	.	16d\	-se-
16a\LL	16cc#\LL	.	.	.	.	.	.	8c#\	-re-
16cc#\	16aa\	.	.	.	.	.	.	.	.
16cc#\	16aa\	.	.	.	.	.	.	8c#\	-re
16a\JJ	16cc#\JJ	.	.	.	.	.	.	.	.
=21	=21	=21	=21	=21	=21	=21	=21	=21	=21
8a/L	8cc#\L	.	2ryy	.	2ryy	2ryy	.	8c#\	no-
8g#/J	8b\J	.	.	.	.	.	.	8A\	-bis
4r	4r	.	.	.	.	.	.	8r	.
.	.	.	.	.	.	.	.	16B\	mi-
.	.	.	.	.	.	.	.	16B\	-se-
=22	=22	=22	=22	=22	=22	=22	=22	=22	=22
4r	4r	.	2ryy	.	2ryy	2ryy	.	16c#\LL	-re-
.	.	.	.	.	.	.	.	16d#X\JJ	.
.	.	.	.	.	.	.	.	16e\LL	-re
.	.	.	.	.	.	.	.	16f#\JJ	.
8r	8r	.	.	.	.	.	.	4f#\	no-
8dd#X\	8dd#X\	.	.	.	.	.	.	.	.
!	!	!	!	!	!	!	!	!LO:LB:g=original	!
=23	=23	=23	=23	=23	=23	=23	=23	=23	=23
8ee\L	8ee\L	.	2ryy	.	2ryy	2ryy	.	4e\	-bis
16b\L	16b\L	.	.	.	.	.	.	.	.
16g#\JJ	16g#\JJ	.	.	.	.	.	.	.	.
!LO:TX:a:t=P:problem=mixed beam	!LO:TX:a:t=P:problem=mixed beam	!LO:DY:a:t=f.	!	!	!	!	!	!	!
8e/L	8e/L	f	.	.	.	.	.	8r	.
16ee\L	16gg#\L	.	.	.	.	.	.	8r	.
16ff#\JJ	16aa\JJ	.	.	.	.	.	.	.	.
=24	=24	=24	=24	=24	=24	=24	=24	=24	=24
8.gg#\L	16bb\LL	.	2ryy	.	2ryy	2ryy	.	1r	.
.	16gg#\	.	.	.	.	.	.	.	.
.	16ff#\	.	.	.	.	.	.	.	.
16ee\Jk	16ee\JJ	.	.	.	.	.	.	.	.
4ff#\	4ff#\	.	.	.	.	.	.	.	.
=25	=25	=25	=25	=25	=25	=25	=25	=25	=25
8ee\L	8ee\L	.	2ryy	.	2ryy	2ryy	.	.	.
16b\L	16b\L	.	.	.	.	.	.	.	.
16ee\JJ	16ee\JJ	.	.	.	.	.	.	.	.
8ee\L	8ee\L	.	.	.	.	.	.	.	.
16b\L	16b\L	.	.	.	.	.	.	.	.
16ee\JJ	16ee\JJ	.	.	.	.	.	.	.	.
=26	=26	=26	=26	=26	=26	=26	=26	=26	=26
8dd#X\L	8ff#\L	.	2ryy	.	2ryy	2ryy	.	4r	.
8ee\J	8gg#\J	.	.	.	.	.	.	.	.
4r	8r	.	.	.	.	.	.	8r	.
!	!	!LO:DY:a:t=Po.	!	!	!	!	!	!	!
.	16e/LL	p	.	.	.	.	.	16G#/	A-
.	16f#/JJ	.	.	.	.	.	.	16A/	-gn(us)
=27	=27	=27	=27	=27	=27	=27	=27	=27	=27
8e/L	16g#/LL	.	2ryy	.	2ryy	2ryy	.	8B\	De-
.	16g#/	.	.	.	.	.	.	.	.
8g#/	16f#/	.	.	.	.	.	.	16B\	-i
.	16e/JJ	.	.	.	.	.	.	16B\	qvi
8a/	4f#/	.	.	.	.	.	.	8c#\L	tol-
8b/J	.	.	.	.	.	.	.	8d#X\J	.
=28	=28	=28	=28	=28	=28	=28	=28	=28	=28
8ee\	8g#/	.	2ryy	.	2ryy	2ryy	.	8e\	-lis
8r	8r	.	.	.	.	.	.	16B\LL	pec-
.	.	.	.	.	.	.	.	16e\JJ	.
8ee\	8g#/	.	.	.	.	.	.	8e\	ca-
8r	8r	.	.	.	.	.	.	16B\LL	-ta
.	.	.	.	.	.	.	.	16e\JJ	.
!LO:LB:g=original	!	!	!	!	!	!	!	!	!
=29	=29	=29	=29	=29	=29	=29	=29	=29	=29
8dd#X\L	8f#/L	.	2ryy	.	2ryy	2ryy	.	8d#X\	mun-
8ee\J	8g#/J	.	.	.	.	.	.	8e\	-di
!	!LO:LB:g=original	!	!	!	!	!	!	!	!
4r	8r	.	.	.	.	.	.	8r	.
.	16a/LL	.	.	.	.	.	.	16c#\	A-
.	16b/JJ	.	.	.	.	.	.	16dn\	-gn(us)
=30	=30	=30	=30	=30	=30	=30	=30	=30	=30
8a/L	8cc#\L	.	2ryy	.	2ryy	2ryy	.	16e\LL	De-
.	.	.	.	.	.	.	.	16c#\JJ	.
8c#/	8a\	.	.	.	.	.	.	16B\	-i
.	.	.	.	.	.	.	.	16A\	qvi
!	!	!	!	!	!	!	!	!LO:LB:g=original	!
8d/	8.b\	.	.	.	.	.	.	4B\	tol-
8e/J	.	.	.	.	.	.	.	.	.
.	16g#\Jk	.	.	.	.	.	.	.	.
=31	=31	=31	=31	=31	=31	=31	=31	=31	=31
8c#/	8a\	.	2ryy	.	2ryy	2ryy	.	8A/	-lis
8r	8r	.	.	.	.	.	.	16E/LL	pec-
.	.	.	.	.	.	.	.	16A/JJ	.
8a/	8cc#\	.	.	.	.	.	.	8A/	-ca-
8r	8r	.	.	.	.	.	.	16E/LL	-ta
.	.	.	.	.	.	.	.	16A/JJ	.
=32	=32	=32	=32	=32	=32	=32	=32	=32	=32
8g#/L	8b\L	.	2ryy	.	2ryy	2ryy	.	8B\	mun-
8a/J	8cc#\J	.	.	.	.	.	.	8c#\	-di
8r	16r	.	.	.	.	.	.	4r	.
.	16aa\LL	.	.	.	.	.	.	.	.
8cc#\	16gg#\	.	.	.	.	.	.	.	.
.	16ff#\JJ	.	.	.	.	.	.	.	.
=33	=33	=33	=33	=33	=33	=33	=33	=33	=33
8cc#\L	8ee\L	.	2ryy	.	2ryy	2ryy	.	4A\	mi-
8dd\	8ff#\J	.	.	.	.	.	.	.	.
!	!LO:TX:a:t=P:problem=mixed beam	!	!	!	!	!	!	!	!
8cc#\	16ee\LL	.	.	.	.	.	.	4A\	-se-
.	16g#/	.	.	.	.	.	.	.	.
8cc#\J	16f#/	.	.	.	.	.	.	.	.
.	16e/JJ	.	.	.	.	.	.	.	.
=34	=34	=34	=34	=34	=34	=34	=34	=34	=34
8cc#\L	8e/L	.	2ryy	.	2ryy	2ryy	.	2A\	-re-
8dd\	8f#/J	.	.	.	.	.	.	.	.
!	!LO:TX:a:t=P:problem=mixed beam	!	!	!	!	!	!	!	!
8cc#\	16e/LL	.	.	.	.	.	.	.	.
.	16aa\	.	.	.	.	.	.	.	.
8cc#\J	16gg#\	.	.	.	.	.	.	.	.
.	16ff#\JJ	.	.	.	.	.	.	.	.
=35	=35	=35	=35	=35	=35	=35	=35	=35	=35
8cc#\L	16ee\LL	.	2ryy	.	2ryy	2ryy	.	2A\	-re
.	16aa\	.	.	.	.	.	.	.	.
8cc#\J	16gg#\	.	.	.	.	.	.	.	.
.	16ff#\JJ	.	.	.	.	.	.	.	.
16cc#\LL	16ee\LL	.	.	.	.	.	.	.	.
16b\	16ee\	.	.	.	.	.	.	.	.
16a\	16dd\	.	.	.	.	.	.	.	.
16g#\JJ	16cc#\JJ	.	.	.	.	.	.	.	.
=36	=36	=36	=36	=36	=36	=36	=36	=36	=36
16g#/LL	16b\LL	.	2ryy	.	2ryy	2ryy	.	8E/	no-
16b/J	16dd\J	.	.	.	.	.	.	.	.
8a/J	8cc#\J	.	.	.	.	.	.	8A/	-bis
4r	4r	.	.	.	.	.	.	8r	.
.	.	.	.	.	.	.	.	16d\	mi-
.	.	.	.	.	.	.	.	16d\	-se-
=37	=37	=37	=37	=37	=37	=37	=37	=37	=37
4r	4r	.	2ryy	.	2ryy	2ryy	.	16c#\LL	-re-
.	.	.	.	.	.	.	.	16f#\JJ	.
.	.	.	.	.	.	.	.	16e\LL	-re
.	.	.	.	.	.	.	.	16d\JJ	.
8r	8r	.	.	.	.	.	.	16c#\LL	no-
.	.	.	.	.	.	.	.	16B\	.
8g#/	8g#/	.	.	.	.	.	.	16A\	.
.	.	.	.	.	.	.	.	16G#\JJ	.
=38	=38	=38	=38	=38	=38	=38	=38	=38	=38
8a/L	8a/L	.	2ryy	.	2ryy	2ryy	.	4A\	-bis
16e/L	16e/L	.	.	.	.	.	.	.	.
16c#/JJ	16c#/JJ	.	.	.	.	.	.	.	.
!	!LO:TX:a:t=P:problem=mixed beam	!	!	!	!	!	!	!	!
8A/L	8A/L	.	.	.	.	.	.	4r	.
16a/L	16cc#\L	.	.	.	.	.	.	.	.
16b/JJ	16dd\JJ	.	.	.	.	.	.	.	.
!LO:LB:g=original	!	!	!	!	!	!	!	!	!
=39	=39	=39	=39	=39	=39	=39	=39	=39	=39
!	!	!LO:DY:a:rj:t=f.	!	!	!	!	!	!	!
8.cc#\L	16ee\LL	f	2ryy	.	2ryy	2ryy	.	0r	.
.	16cc#\	.	.	.	.	.	.	.	.
.	16b\	.	.	.	.	.	.	.	.
16a\Jk	16a\JJ	.	.	.	.	.	.	.	.
4b\	4b\	.	.	.	.	.	.	.	.
!	!LO:LB:g=original	!	!	!	!	!	!	!	!
=40	=40	=40	=40	=40	=40	=40	=40	=40	=40
8a/L	8a/L	.	2ryy	.	2ryy	2ryy	.	.	.
16e/L	16e/L	.	.	.	.	.	.	.	.
16a/JJ	16a/JJ	.	.	.	.	.	.	.	.
8a/L	8a/L	.	.	.	.	.	.	.	.
16e/L	16e/L	.	.	.	.	.	.	.	.
16a/JJ	16a/JJ	.	.	.	.	.	.	.	.
=41	=41	=41	=41	=41	=41	=41	=41	=41	=41
8g#/L	8b\L	.	2ryy	.	2ryy	2ryy	.	.	.
8a/J	8cc#\J	.	.	.	.	.	.	.	.
8r	8r	.	.	.	.	.	.	.	.
8b\	8dd\	.	.	.	.	.	.	.	.
=42	=42	=42	=42	=42	=42	=42	=42	=42	=42
8a/L	16cc#\LL	.	2ryy	.	2ryy	2ryy	.	.	.
.	16ff#\	.	.	.	.	.	.	.	.
8f#/	16ee\	.	.	.	.	.	.	.	.
.	16dd\JJ	.	.	.	.	.	.	.	.
8g#/	16cc#/LL	.	.	.	.	.	.	.	.
.	16b/	.	.	.	.	.	.	.	.
8a/J	16a/	.	.	.	.	.	.	.	.
.	16g#/JJ	.	.	.	.	.	.	.	.
=43	=43	=43	=43	=43	=43	=43	=43	=43	=43
!	!	!	!LO:TX:b:i:t=Dona nobis ut Kyrie Allo	!	!	!LO:TX:b:i:t=Dona nobis ut Kyrie Allo	!	!LO:TX:b:i:t=Dona nobis ut Kyrie Allo	!
8a/L	8a/L	.	2ryy	.	2ryy	2ryy	.	2r	.
16e/L	16e/L	.	.	.	.	.	.	.	.
16c#/JJ	16c#/JJ	.	.	.	.	.	.	.	.
!LO:TX:b:i:t=Dona nobis ut Kyrie Allo	!LO:TX:b:i:t=Dona nobis ut Kyrie Alegro	!	!	!	!	!	!	!	!
4A/	4A/	.	.	.	.	.	.	.	.
==	==	==	==	==	==	==	==	==	==
*-	*-	*-	*-	*-	*-	*-	*-	*-	*-
!!!system-decoration: [(g1)][(g2)]
!!!ENC: Berenika Jozajtis
!!!END: 2020-12-14
!!!ENC: Marta Lawrence
!!!END: 2022-03-27
